contributed-vectors/zepp.svg

<svg xmlns="http://www.w3.org/2000/svg" width="192" height="192" fill="none"><g fill-rule="evenodd" clip-path="url(#a)" clip-rule="evenodd"><path fill="#54688C" d="M29 19h133c5.52 0 10 4.48 10 10v133c0 5.52-4.48 10-10 10H29c-5.52 0-10-4.48-10-10V29c0-5.52 4.48-10 10-10Z"/><path fill="#fff" d="M126.5 59.01c-20.66.05-41.33-.05-61.99 0 .05 2.6.34 6.52 1.48 10.9.98 3.76 2.86 10.67 8.68 17.13 2.01 2.23 5.67 5.72 11.42 8.45-5.75 2.73-9.41 6.22-11.42 8.45-5.82 6.46-7.7 13.37-8.68 17.13-1.14 4.38-1.43 8.3-1.48 10.9 20.66.05 41.33-.05 61.99 0v-12.24H81.41c1.66-4.6 3.96-7.64 5.5-9.37 2.88-3.25 5.93-4.93 11.86-8.2 3.85-2.12 7.24-3.72 9.86-4.87v-3.62c-2.62-1.15-6.02-2.74-9.86-4.87-5.92-3.27-8.97-4.95-11.86-8.2-1.54-1.73-3.84-4.77-5.5-9.37h45.09V59.01Z"/></g><defs><clipPath id="a"><path fill="#fff" d="M0 0h192v192H0z"/></clipPath></defs></svg>

<svg width="192" height="192" viewBox="0 0 192 192" fill="none" xmlns="http://www.w3.org/2000/svg">
<g clip-path="url(#clip0)">
<path fill-rule="evenodd" clip-rule="evenodd" d="M29 19H162C167.52 19 172 23.48 172 29V162C172 167.52 167.52 172 162 172H29C23.48 172 19 167.52 19 162V29C19 23.48 23.48 19 29 19Z" fill="#54688C"/>
<path fill-rule="evenodd" clip-rule="evenodd" d="M126.5 59.01C105.84 59.06 85.17 58.96 64.51 59.01C64.56 61.61 64.85 65.53 65.99 69.91C66.97 73.67 68.85 80.58 74.67 87.04C76.68 89.27 80.34 92.76 86.09 95.49C80.34 98.22 76.68 101.71 74.67 103.94C68.85 110.4 66.97 117.31 65.99 121.07C64.85 125.45 64.56 129.37 64.51 131.97C85.17 132.02 105.84 131.92 126.5 131.97C126.5 127.89 126.5 123.81 126.5 119.73C111.47 119.73 96.44 119.73 81.41 119.73C83.07 115.13 85.37 112.09 86.91 110.36C89.79 107.11 92.84 105.43 98.77 102.16C102.62 100.04 106.01 98.44 108.63 97.29C108.63 96.69 108.63 96.09 108.63 95.48C108.63 94.88 108.63 94.28 108.63 93.67C106.01 92.52 102.61 90.93 98.77 88.8C92.85 85.53 89.8 83.85 86.91 80.6C85.37 78.87 83.07 75.83 81.41 71.23C96.44 71.23 111.47 71.23 126.5 71.23C126.5 67.17 126.5 63.09 126.5 59.01Z" fill="white"/>
</g>
<defs>
<clipPath id="clip0">
<rect width="192" height="192" fill="white"/>
</clipPath>
</defs>
</svg>
